Obsidian-SemiLight/actions/22s/category.svg

<svg viewBox="0 0 22 22" xmlns="http://www.w3.org/2000/svg"><path d="m10 3v2.0898438a6 6 0 0 0 -4.9140625 4.9101562h-2.0859375v2h2.0898438a6 6 0 0 0 5.9101562 5 6 6 0 0 0 5.914062-5h2.085938v-2h-2.089844a6 6 0 0 0 -4.910156-4.9140625v-2.0859375zm1 3a5 5 0 0 1 5 5 5 5 0 0 1 -5 5 5 5 0 0 1 -5-5 5 5 0 0 1 5-5z" fill="#4d4d4d"/></svg>

<svg xmlns="http://www.w3.org/2000/svg" viewBox="0 0 22 22">
  <defs id="defs3051">
    <style type="text/css" id="current-color-scheme">
      .ColorScheme-Text {
        color:#4d4d4d;
      }
      </style>
  </defs>
 <path 
    style="fill:currentColor;fill-opacity:1;stroke:none" 
    d="M 10 3 L 10 5.0898438 A 6 6 0 0 0 5.0859375 10 L 3 10 L 3 12 L 5.0898438 12 A 6 6 0 0 0 11 17 A 6 6 0 0 0 16.914062 12 L 19 12 L 19 10 L 16.910156 10 A 6 6 0 0 0 12 5.0859375 L 12 3 L 10 3 z M 11 6 A 5 5 0 0 1 16 11 A 5 5 0 0 1 11 16 A 5 5 0 0 1 6 11 A 5 5 0 0 1 11 6 z "
    class="ColorScheme-Text"
    />  
</svg>
